X: 32390
T: Piper On Horseback, The
R: reel
M: 4/4
K: Eminor
D3d cA3|cded cAGE|D3d cA3|cAGE EDDE|
FGAd cA3|cded cA3|f2ed cA3|cAGE EDD2||
ABde f3g|afge d3B|ABde f2ed|cAGE EDD2|
A2de fefg|af (3gfe defg|(3agf (3gfe f3d|cAGE EDD2||

